static/images/pattern.svg

<svg xmlns="http://www.w3.org/2000/svg" xmlns:xlink="http://www.w3.org/1999/xlink" viewBox="0 0 50 73.75" version="1.1" x="0px" y="0px"><title>Group 46</title><desc>Created with Sketch.</desc><g stroke="none" stroke-width="1" fill="none" fill-rule="evenodd"><g transform="translate(-487.000000, -874.000000)" fill="#000000"><g transform="translate(487.000000, 873.000000)"><path d="M31.8023,58 L45.1173,58 L47.8753,35.935 C46.0343,35.716 44.4743,34.944 43.2253,33.634 C39.7043,29.937 39.9873,23.235 40.0013,22.951 C40.0003,14.239 41.6743,8.939 42.5733,6.722 L25.9493,3.222 C25.6903,6.268 24.4433,8.833 22.2343,10.858 C16.3813,16.226 5.4903,16.215 2.0003,16.062 L2.0003,58 L23.1533,58 L26.0133,40.836 C26.0923,40.363 26.4943,40.013 26.9733,40 C27.4463,40.031 27.8723,40.315 27.9763,40.783 L31.8023,58 Z M46.0003,60 L31.0003,60 C30.5313,60 30.1253,59.675 30.0243,59.217 L27.1403,46.241 L24.9863,59.164 C24.9063,59.646 24.4893,60 24.0003,60 L1.0003,60 C0.4483,60 0.0003,59.553 0.0003,59 L0.0003,15 C0.0003,14.72 0.1173,14.452 0.3243,14.264 C0.5313,14.074 0.8063,13.976 1.0863,14.004 C1.2223,14.017 14.6543,15.1 20.8853,9.382 C22.9513,7.485 24.0003,5.002 24.0003,2 C24.0003,1.698 24.1353,1.413 24.3703,1.224 C24.6043,1.033 24.9123,0.958 25.2063,1.021 L44.2063,5.021 C44.5163,5.087 44.7773,5.296 44.9093,5.584 C45.0413,5.873 45.0283,6.207 44.8753,6.484 C44.8473,6.535 42.0003,11.873 42.0003,23 C41.9963,23.108 41.7473,29.187 44.6773,32.258 C45.7963,33.431 47.2103,34 49.0003,34 C49.2863,34 49.5603,34.123 49.7493,34.338 C49.9393,34.554 50.0283,34.84 49.9923,35.124 L46.9923,59.124 C46.9293,59.624 46.5043,60 46.0003,60 L46.0003,60 Z"/><path d="M3,29 L1,29 C0.448,29 0,28.553 0,28 C0,27.447 0.448,27 1,27 L3,27 C3.552,27 4,27.447 4,28 C4,28.553 3.552,29 3,29"/><path d="M13,29 L9,29 C8.448,29 8,28.553 8,28 C8,27.447 8.448,27 9,27 L13,27 C13.552,27 14,27.447 14,28 C14,28.553 13.552,29 13,29 M23,29 L19,29 C18.448,29 18,28.553 18,28 C18,27.447 18.448,27 19,27 L23,27 C23.552,27 24,27.447 24,28 C24,28.553 23.552,29 23,29 M33,29 L29,29 C28.448,29 28,28.553 28,28 C28,27.447 28.448,27 29,27 L33,27 C33.552,27 34,27.447 34,28 C34,28.553 33.552,29 33,29"/><path d="M41,29 L39,29 C38.448,29 38,28.553 38,28 C38,27.447 38.448,27 39,27 L41,27 C41.552,27 42,27.447 42,28 C42,28.553 41.552,29 41,29"/></g></g></g><text x="0" y="74" fill="#000000" font-size="5px" font-weight="bold" font-family="'Helvetica Neue', Helvetica, Arial-Unicode, Arial, Sans-serif">Created by Oliviu Stoian</text><text x="0" y="79" fill="#000000" font-size="5px" font-weight="bold" font-family="'Helvetica Neue', Helvetica, Arial-Unicode, Arial, Sans-serif">from the Noun Project</text></svg>

<?xml version="1.0" encoding="UTF-8" standalone="no"?>
<svg
   xmlns:dc="http://purl.org/dc/elements/1.1/"
   xmlns:cc="http://creativecommons.org/ns#"
   xmlns:rdf="http://www.w3.org/1999/02/22-rdf-syntax-ns#"
   xmlns:svg="http://www.w3.org/2000/svg"
   xmlns="http://www.w3.org/2000/svg"
   xmlns:sodipodi="http://sodipodi.sourceforge.net/DTD/sodipodi-0.dtd"
   xmlns:inkscape="http://www.inkscape.org/namespaces/inkscape"
   viewBox="0 0 50.000149 59.000839"
   version="1.1"
   x="0px"
   y="0px"
   id="svg56"
   sodipodi:docname="pattern.svg"
   width="50.000149"
   height="59.000839"
   inkscape:version="0.92.1 r15371">
  <metadata
     id="metadata62">
    <rdf:RDF>
      <cc:Work
         rdf:about="">
        <dc:format>image/svg+xml</dc:format>
        <dc:type
           rdf:resource="http://purl.org/dc/dcmitype/StillImage" />
        <dc:title>Group 46</dc:title>
      </cc:Work>
    </rdf:RDF>
  </metadata>
  <defs
     id="defs60" />
  <sodipodi:namedview
     pagecolor="#ffffff"
     bordercolor="#666666"
     borderopacity="1"
     objecttolerance="10"
     gridtolerance="10"
     guidetolerance="10"
     inkscape:pageopacity="0"
     inkscape:pageshadow="2"
     inkscape:window-width="752"
     inkscape:window-height="480"
     id="namedview58"
     showgrid="false"
     fit-margin-top="0"
     fit-margin-left="0"
     fit-margin-right="0"
     fit-margin-bottom="0"
     inkscape:zoom="3.2"
     inkscape:cx="25"
     inkscape:cy="22.125"
     inkscape:window-x="0"
     inkscape:window-y="25"
     inkscape:window-maximized="0"
     inkscape:current-layer="svg56" />
  <title
     id="title34">Group 46</title>
  <desc
     id="desc36">Created with Sketch.</desc>
  <g
     id="g50"
     style="fill:none;fill-rule:evenodd;stroke:none;stroke-width:1"
     transform="translate(0,8.3971231e-4)">
    <g
       transform="translate(-487,-874)"
       id="g48"
       style="fill:#000000">
      <g
         transform="translate(487,873)"
         id="g46">
        <path
           d="m 31.8023,58 h 13.315 l 2.758,-22.065 c -1.841,-0.219 -3.401,-0.991 -4.65,-2.301 -3.521,-3.697 -3.238,-10.399 -3.224,-10.683 -10e-4,-8.712 1.673,-14.012 2.572,-16.229 l -16.624,-3.5 c -0.259,3.046 -1.506,5.611 -3.715,7.636 -5.853,5.368 -16.744,5.357 -20.234,5.204 V 58 h 21.153 l 2.86,-17.164 c 0.079,-0.473 0.481,-0.823 0.96,-0.836 0.473,0.031 0.899,0.315 1.003,0.783 z m 14.198,2 h -15 c -0.469,0 -0.875,-0.325 -0.976,-0.783 l -2.884,-12.976 -2.154,12.923 C 24.9063,59.646 24.4893,60 24.0003,60 h -23 c -0.552,0 -1,-0.447 -1,-1 V 15 c 0,-0.28 0.117,-0.548 0.324,-0.736 0.207,-0.19 0.482,-0.288 0.762,-0.26 0.136,0.013 13.568,1.096 19.799,-4.622 2.066,-1.897 3.115,-4.38 3.115,-7.382 0,-0.302 0.135,-0.587 0.37,-0.776 0.234,-0.191 0.542,-0.266 0.836,-0.203 l 19,4 c 0.31,0.066 0.571,0.275 0.703,0.563 0.132,0.289 0.119,0.623 -0.034,0.9 -0.028,0.051 -2.875,5.389 -2.875,16.516 -0.004,0.108 -0.253,6.187 2.677,9.258 1.119,1.173 2.533,1.742 4.323,1.742 0.286,0 0.56,0.123 0.749,0.338 0.19,0.216 0.279,0.502 0.243,0.786 l -3,24 c -0.063,0.5 -0.488,0.876 -0.992,0.876 z"
           id="path38"
           inkscape:connector-curvature="0" />
        <path
           d="M 3,29 H 1 C 0.448,29 0,28.553 0,28 0,27.447 0.448,27 1,27 h 2 c 0.552,0 1,0.447 1,1 0,0.553 -0.448,1 -1,1"
           id="path40"
           inkscape:connector-curvature="0" />
        <path
           d="M 13,29 H 9 C 8.448,29 8,28.553 8,28 8,27.447 8.448,27 9,27 h 4 c 0.552,0 1,0.447 1,1 0,0.553 -0.448,1 -1,1 m 10,0 h -4 c -0.552,0 -1,-0.447 -1,-1 0,-0.553 0.448,-1 1,-1 h 4 c 0.552,0 1,0.447 1,1 0,0.553 -0.448,1 -1,1 m 10,0 h -4 c -0.552,0 -1,-0.447 -1,-1 0,-0.553 0.448,-1 1,-1 h 4 c 0.552,0 1,0.447 1,1 0,0.553 -0.448,1 -1,1"
           id="path42"
           inkscape:connector-curvature="0" />
        <path
           d="m 41,29 h -2 c -0.552,0 -1,-0.447 -1,-1 0,-0.553 0.448,-1 1,-1 h 2 c 0.552,0 1,0.447 1,1 0,0.553 -0.448,1 -1,1"
           id="path44"
           inkscape:connector-curvature="0" />
      </g>
    </g>
  </g>
</svg>
